optimized/20/solid/stop-circle.svg

<svg xmlns="http://www.w3.org/2000/svg" viewBox="0 0 20 20">
  <path fill-rule="evenodd" d="M2 10C2 5.58172 5.58172 2 10 2C14.4183 2 18 5.58172 18 10C18 14.4183 14.4183 18 10 18C5.58172 18 2 14.4183 2 10ZM7 7.75C7 7.33579 7.33579 7 7.75 7H12.25C12.6642 7 13 7.33579 13 7.75V12.25C13 12.6642 12.6642 13 12.25 13H7.75C7.33579 13 7 12.6642 7 12.25V7.75Z" clip-rule="evenodd"/>
</svg>

<svg xmlns="http://www.w3.org/2000/svg" viewBox="0 0 20 20" fill="currentColor" aria-hidden="true">
  <path fill-rule="evenodd" d="M2 10a8 8 0 1116 0 8 8 0 01-16 0zm5-2.25A.75.75 0 017.75 7h4.5a.75.75 0 01.75.75v4.5a.75.75 0 01-.75.75h-4.5a.75.75 0 01-.75-.75v-4.5z" clip-rule="evenodd"/>
</svg>
